images/Pagination-5.svg

<svg width="55" height="55" viewBox="0 0 55 55" fill="none" xmlns="http://www.w3.org/2000/svg">
<rect x="0.5" y="0.5" width="54" height="54" rx="3.5" fill="#82B3D3" stroke="#82B3D3"/>
<path d="M20.2033 32.68C20.2033 32.2133 20.3499 31.8467 20.6433 31.58C20.9366 31.3 21.3233 31.16 21.8033 31.16C22.3099 31.16 22.7099 31.3 23.0033 31.58C23.2966 31.8467 23.4433 32.2133 23.4433 32.68C23.4433 33.1467 23.2966 33.52 23.0033 33.8C22.7099 34.08 22.3099 34.22 21.8033 34.22C21.3233 34.22 20.9366 34.08 20.6433 33.8C20.3499 33.52 20.2033 33.1467 20.2033 32.68ZM25.3791 32.68C25.3791 32.2133 25.5257 31.8467 25.8191 31.58C26.1124 31.3 26.4991 31.16 26.9791 31.16C27.4857 31.16 27.8857 31.3 28.1791 31.58C28.4724 31.8467 28.6191 32.2133 28.6191 32.68C28.6191 33.1467 28.4724 33.52 28.1791 33.8C27.8857 34.08 27.4857 34.22 26.9791 34.22C26.4991 34.22 26.1124 34.08 25.8191 33.8C25.5257 33.52 25.3791 33.1467 25.3791 32.68ZM30.5548 32.68C30.5548 32.2133 30.7015 31.8467 30.9948 31.58C31.2882 31.3 31.6748 31.16 32.1548 31.16C32.6615 31.16 33.0615 31.3 33.3548 31.58C33.6482 31.8467 33.7948 32.2133 33.7948 32.68C33.7948 33.1467 33.6482 33.52 33.3548 33.8C33.0615 34.08 32.6615 34.22 32.1548 34.22C31.6748 34.22 31.2882 34.08 30.9948 33.8C30.7015 33.52 30.5548 33.1467 30.5548 32.68Z" fill="white"/>
</svg>

<svg width="55" height="55" fill="none" xmlns="http://www.w3.org/2000/svg"><rect x=".5" y=".5" width="54" height="54" rx="3.5" fill="#82B3D3" stroke="#82B3D3"/><path d="M20.2 32.68c0-.47.15-.83.44-1.1.3-.28.68-.42 1.16-.42.51 0 .91.14 1.2.42.3.27.44.63.44 1.1 0 .47-.14.84-.44 1.12-.29.28-.69.42-1.2.42-.48 0-.86-.14-1.16-.42-.29-.28-.44-.65-.44-1.12Zm5.18 0c0-.47.15-.83.44-1.1.3-.28.68-.42 1.16-.42.5 0 .9.14 1.2.42.3.27.44.63.44 1.1 0 .47-.15.84-.44 1.12-.3.28-.7.42-1.2.42-.48 0-.87-.14-1.16-.42-.3-.28-.44-.65-.44-1.12Zm5.17 0c0-.47.15-.83.44-1.1.3-.28.68-.42 1.16-.42.51 0 .91.14 1.2.42.3.27.44.63.44 1.1 0 .47-.14.84-.44 1.12-.29.28-.69.42-1.2.42-.48 0-.86-.14-1.16-.42-.29-.28-.44-.65-.44-1.12Z" fill="#fff"/></svg>
